flaticon/constructions/concrete-mixer.svg

<svg xmlns="http://www.w3.org/2000/svg" width="32" height="32" viewBox="0 0 24 24">
    <path d="M 23.601562 7.199219 L 23.199219 7.199219 C 23.199219 6.960938 23.039062 6.800781 22.800781 6.800781 C 22.558594 6.800781 22.398438 6.960938 22.398438 7.199219 L 22.398438 10.398438 L 22 10.398438 L 22 8.800781 C 22 8.558594 21.839844 8.398438 21.601562 8.398438 L 20 8.398438 C 19.761719 8.398438 19.601562 8.558594 19.601562 8.800781 L 19.601562 10.398438 L 18.839844 10.398438 L 18.839844 9.601562 C 18.839844 9.558594 18.800781 9.519531 18.800781 9.480469 L 16.878906 4 C 16.519531 3.039062 15.601562 2.398438 14.601562 2.398438 L 11.039062 2.398438 C 10 2.398438 9.078125 3.039062 8.761719 4 L 6.894531 9.328125 C 6.839844 9.390625 6.808594 9.46875 6.800781 9.558594 C 6.800781 9.574219 6.800781 9.585938 6.800781 9.601562 L 6.800781 10.398438 L 6 10.398438 L 6 5.199219 C 6 4.960938 5.839844 4.800781 5.601562 4.800781 L 2 4.800781 C 1.921875 4.800781 1.800781 4.839844 1.71875 4.921875 L 0.121094 6.519531 C 0.0390625 6.601562 0 6.679688 0 6.800781 L 0 11.199219 C 0 12.078125 0.71875 12.800781 1.601562 12.800781 L 3.601562 12.800781 L 3.601562 17.992188 C 3.113281 18.351562 2.800781 18.933594 2.800781 19.601562 C 2.800781 20.71875 3.679688 21.601562 4.800781 21.601562 C 5.921875 21.601562 6.800781 20.71875 6.800781 19.601562 C 6.800781 18.933594 6.488281 18.351562 6 17.992188 L 6 11.199219 L 6.800781 11.199219 L 6.800781 12 C 6.800781 12.144531 6.859375 12.261719 6.960938 12.332031 L 9.71875 16.839844 C 10 17.320312 10.519531 17.601562 11.078125 17.601562 L 14.519531 17.601562 C 15.078125 17.601562 15.601562 17.320312 15.960938 16.839844 L 18.800781 12.199219 C 18.800781 12.160156 18.839844 12.078125 18.839844 12 L 18.839844 11.199219 L 19.601562 11.199219 L 19.601562 17.992188 C 19.113281 18.351562 18.800781 18.933594 18.800781 19.601562 C 18.800781 20.71875 19.679688 21.601562 20.800781 21.601562 C 21.921875 21.601562 22.800781 20.71875 22.800781 19.601562 C 22.800781 18.933594 22.488281 18.351562 22 17.992188 L 22 11.199219 L 22.398438 11.199219 L 22.398438 14.398438 C 22.398438 14.640625 22.558594 14.800781 22.800781 14.800781 C 23.039062 14.800781 23.199219 14.640625 23.199219 14.398438 L 23.199219 8 L 23.601562 8 C 23.839844 8 24 7.839844 24 7.601562 C 24 7.359375 23.839844 7.199219 23.601562 7.199219 Z M 1.601562 12 C 1.160156 12 0.800781 11.640625 0.800781 11.199219 L 0.800781 10.800781 L 1.601562 10.800781 C 1.839844 10.800781 2 10.640625 2 10.398438 C 2 10.160156 1.839844 10 1.601562 10 L 0.800781 10 L 0.800781 9.199219 L 1.601562 9.199219 C 1.839844 9.199219 2 9.039062 2 8.800781 C 2 8.558594 1.839844 8.398438 1.601562 8.398438 L 0.800781 8.398438 L 0.800781 6.960938 L 2.160156 5.601562 L 3.601562 5.601562 L 3.601562 12 Z M 4.800781 20.800781 C 4.121094 20.800781 3.601562 20.28125 3.601562 19.601562 C 3.601562 19.195312 3.785156 18.84375 4.082031 18.628906 C 4.128906 18.617188 4.171875 18.601562 4.199219 18.601562 C 4.601562 18.359375 5 18.359375 5.398438 18.601562 C 5.445312 18.632812 5.5 18.648438 5.554688 18.65625 C 5.828125 18.875 6 19.210938 6 19.601562 C 6 20.28125 5.480469 20.800781 4.800781 20.800781 Z M 4.800781 17.601562 C 4.664062 17.601562 4.527344 17.613281 4.398438 17.640625 L 4.398438 5.601562 L 5.199219 5.601562 L 5.199219 17.640625 C 5.070312 17.613281 4.9375 17.601562 4.800781 17.601562 Z M 7.601562 10 L 18 10 L 18 11.601562 L 7.601562 11.601562 Z M 9.519531 4.28125 C 9.761719 3.640625 10.359375 3.199219 11.039062 3.199219 L 14.601562 3.199219 C 15.28125 3.199219 15.878906 3.640625 16.121094 4.28125 L 17.832031 9.199219 L 7.769531 9.199219 Z M 15.199219 16.398438 C 15.039062 16.640625 14.800781 16.800781 14.519531 16.800781 L 11.078125 16.800781 C 10.800781 16.800781 10.558594 16.640625 10.398438 16.398438 L 7.921875 12.398438 L 17.679688 12.398438 Z M 20.800781 20.800781 C 20.121094 20.800781 19.601562 20.28125 19.601562 19.601562 C 19.601562 19.210938 19.769531 18.875 20.042969 18.65625 C 20.097656 18.648438 20.152344 18.632812 20.199219 18.601562 C 20.601562 18.359375 21 18.359375 21.398438 18.601562 C 21.453125 18.628906 21.488281 18.636719 21.53125 18.636719 C 21.820312 18.855469 22 19.199219 22 19.601562 C 22 20.28125 21.480469 20.800781 20.800781 20.800781 Z M 21.1875 17.636719 C 21.070312 17.601562 20.917969 17.601562 20.800781 17.601562 C 20.683594 17.601562 20.53125 17.601562 20.410156 17.636719 C 20.40625 17.636719 20.402344 17.636719 20.398438 17.640625 L 20.398438 9.199219 L 21.199219 9.199219 L 21.199219 17.640625 C 21.195312 17.636719 21.191406 17.636719 21.1875 17.636719 Z M 21.1875 17.636719"/>
</svg>

<svg xmlns="http://www.w3.org/2000/svg" width="32" height="32" viewBox="0 0 24 24">
    <path d="M23.602 7.2h-.403c0-.24-.16-.4-.398-.4-.242 0-.403.16-.403.4v3.198H22V8.801c0-.242-.16-.403-.398-.403H20c-.238 0-.398.16-.398.403v1.597h-.762v-.796c0-.043-.04-.082-.04-.122L16.88 4a2.454 2.454 0 0 0-2.277-1.602h-3.563C10 2.398 9.08 3.04 8.762 4L6.895 9.328a.394.394 0 0 0-.094.23V10.399H6V5.2c0-.238-.16-.398-.398-.398H2c-.078 0-.2.039-.281.12L.12 6.52A.361.361 0 0 0 0 6.8v4.4c0 .878.719 1.6 1.602 1.6h2v5.192c-.489.36-.801.942-.801 1.61 0 1.117.879 2 2 2 1.12 0 2-.883 2-2 0-.668-.313-1.25-.801-1.61V11.2h.8V12c0 .145.06.262.16.332L9.72 16.84c.281.48.8.762 1.36.762h3.44c.56 0 1.083-.282 1.442-.762l2.84-4.64c0-.04.039-.122.039-.2v-.8h.762v6.792c-.489.36-.801.942-.801 1.61 0 1.117.879 2 2 2 1.12 0 2-.883 2-2 0-.668-.313-1.25-.801-1.61V11.2h.398v3.2c0 .242.16.402.403.402.238 0 .398-.16.398-.403V8h.403c.238 0 .398-.16.398-.398 0-.243-.16-.403-.398-.403zm-22 4.8C1.16 12 .8 11.64.8 11.2v-.4h.8c.239 0 .399-.16.399-.402C2 10.16 1.84 10 1.602 10H.8v-.8h.8C1.84 9.2 2 9.04 2 8.8c0-.241-.16-.402-.398-.402H.8V6.961L2.16 5.6H3.6V12zM4.8 20.8c-.68 0-1.2-.519-1.2-1.198 0-.407.184-.758.481-.973.047-.012.09-.027.117-.027.403-.243.801-.243 1.2 0a.374.374 0 0 0 .156.054c.273.219.445.555.445.946 0 .68-.52 1.199-1.2 1.199zm0-3.198c-.137 0-.274.011-.403.039V5.6H5.2v12.04a1.915 1.915 0 0 0-.398-.04zM7.6 10H18v1.602H7.602zM9.52 4.281c.242-.64.84-1.082 1.52-1.082h3.562c.68 0 1.277.442 1.52 1.082l1.71 4.918H7.77zm5.68 12.117c-.16.243-.4.403-.68.403h-3.442c-.277 0-.52-.16-.68-.403l-2.476-4h9.758zm5.6 4.403c-.679 0-1.198-.52-1.198-1.2 0-.39.168-.726.441-.945a.374.374 0 0 0 .156-.054c.403-.243.801-.243 1.2 0a.27.27 0 0 0 .132.035c.29.218.469.562.469.965 0 .68-.52 1.199-1.2 1.199zm.387-3.164c-.117-.035-.269-.035-.386-.035-.117 0-.27 0-.39.035-.005 0-.009 0-.013.004V9.199h.801v8.442c-.004-.004-.008-.004-.012-.004zm0 0"/>
</svg>
